X: 1
P: Liberty Bell March
R: Jig
C: by John Philip Sousa
C: arr. T. Traub 4-27-2001
M: 6/8
L: 1/8
K: C
G|"C"E2 E E^DE|"C"c2 G G2 E|"Dm"F2 E F2 G |A3-A2 F|"G"D2 D D^CD |B2 A A2 F|"C"E2 ^D E2 F|G3-G2 "G"G ||
"C"E2 E E^DE|e2 c c2 G|"D"^F2 d d2 d|d3-d2 c|"G"B2 d d^cd|"D"A2 d d^cd|"G"G2 ^F G2 F|"G"G3 "G7"=F3 ||
"C"E^DE A2 G|"C"E3 C3|"F"A,3 "G"D3|"C"C3-C2 C|"G"D^CD B2 A|"C"G3 c3|"G"B3 "D"A3 |"G"G3-G2 G||
"F"A2 A A^GA|"E"B3 B3|"Am"c2 c "G"d2 d|"C"e3-e2 e|"F"d2 c A2 F|"C"E3 c3|"G"D3 B3|"C"c z2 |]
